src/lib/packages/icons/src/assets/line/arrow-left-circle.svg

<svg width="24" height="24" viewBox="0 0 24 24" fill="none" xmlns="http://www.w3.org/2000/svg">
<path d="M12 1.25C6.072 1.25 1.25 6.072 1.25 12C1.25 17.928 6.072 22.75 12 22.75C17.928 22.75 22.75 17.928 22.75 12C22.75 6.072 17.928 1.25 12 1.25ZM12 21.25C6.899 21.25 2.75 17.101 2.75 12C2.75 6.899 6.899 2.75 12 2.75C17.101 2.75 21.25 6.899 21.25 12C21.25 17.101 17.101 21.25 12 21.25ZM16.75 12C16.75 12.414 16.414 12.75 16 12.75H9.81104L11.531 14.47C11.824 14.763 11.824 15.238 11.531 15.531C11.385 15.677 11.193 15.751 11.001 15.751C10.809 15.751 10.6169 15.678 10.4709 15.531L7.47095 12.531C7.40195 12.462 7.34708 12.3791 7.30908 12.2871C7.23308 12.1041 7.23308 11.8971 7.30908 11.7141C7.34708 11.6221 7.40195 11.539 7.47095 11.47L10.4709 8.46997C10.7639 8.17697 11.239 8.17697 11.532 8.46997C11.825 8.76297 11.825 9.23801 11.532 9.53101L9.81201 11.251H16C16.414 11.25 16.75 11.586 16.75 12Z" fill="currentColor"/>
</svg>

<svg xmlns="http://www.w3.org/2000/svg" width="24" height="24" fill="none"><path fill="currentColor" d="M12 1.25C6.072 1.25 1.25 6.072 1.25 12S6.072 22.75 12 22.75 22.75 17.928 22.75 12 17.928 1.25 12 1.25Zm0 20c-5.101 0-9.25-4.149-9.25-9.25S6.899 2.75 12 2.75s9.25 4.149 9.25 9.25-4.149 9.25-9.25 9.25ZM16.75 12a.75.75 0 0 1-.75.75H9.811l1.72 1.72a.75.75 0 0 1-1.06 1.061l-3-3a.748.748 0 0 1-.162-.817.749.749 0 0 1 .162-.244l3-3a.75.75 0 0 1 1.061 1.061l-1.72 1.72H16a.749.749 0 0 1 .75.749Z"/></svg>
